X:1
T:Blackwat:er -- Reel
R:reel
B:Ryan's Mammoth Collection
Z:Contributed by Ray Davies,  ray:davies99.freeserve.co.uk
M:C|
L:1/8
K:G
vdc"Segno"|:BGGG G2dc|BGBd gdec|BGGG G2cB|AGFG ABcA|
BGGG G2dc|BGBd g2fg|afge fdec|AGFG ABcA::
Bddd d2dc|BGBd gdec|Bddd d2cB|AGFG ABcA|
Bddd d2dc|BGBd g2fg|afge fdec|AGFG ABcA"Segno":|
